X:18
T:Miss Bairds of New Bythe Strthspey. LIT.018
M:2/4
Q:1/4=140
L:1/8
B:Wm. Litten MS, 1802
Z:Village Music Project 2017 Anne Wride
K:G
B | AD B/A/G/F/ | EC CE | AD B/A/G/F/ | AD B/A/G/F/ |
BG AF | EC CE | AD AG/F/ | AD D :|
|: g | f>d Ad | ec c>e | f>d Ad | f>d Ad |
A>d fd | ec c>e | fd A>d | FD Dg |
f>d Ad | ec c>e | fd A>d | f>d ec |
dA cF | EC CE | AD AG/F/ | AD D :|

